!!!COM: Claude Goudimel
!!!OMD: Psalm 54: O Dieu tout-puissant, sauve-moy
**kern	**kern	**kern	**kern
*part4	*part3	*part2	*part1
*staff4	*staff3	*staff2	*staff1
*clefF4	*clefGv2	*clefG2	*clefG2
*k[f#]	*k[f#]	*k[f#]	*k[f#]
!!LO:TX:omd:t=
*M4/4	*M4/4	*M4/4	*M4/4
=1	=1	=1	=1
2G	2d	2g	2b
4C	4c	4e	4g
4E	4B	4e	4g
=2	=2	=2	=2
2D	2d	2f#	2a
2G	2d	2g	2b
=3	=3	=3	=3
4C	4e	4g	4cc
4C	4e	4g	4cc
2GG	2d	2g	2b
=4	=4	=4	=4
2r	2r	2r	2r
2G	2d	2g	2b
=5	=5	=5	=5
4G	4d	4g	4b
4D	4d	4f#	4a
4G	4d	4g	4b
4G	4B	4g	4dd
=6	=6	=6	=6
4C	4e	4g	4cc
4GG	4d	4g	4b
2D	2d	2f#	2a
=7	=7	=7	=7
2GG	2d	2g	2b
2r	2r	2r	2r
=8	=8	=8	=8
2G	2d	2g	2b
4G	4d	4g	4b
4D	4d	4f#	4a
=9	=9	=9	=9
2E	2B	2e	2g
2AA	2A	2c#X	2e
=10	=10	=10	=10
4D	4A	4d	4f#
4GG	4B	2d	4g
2AA	2A	.	2e
.	.	4c#X	.
=11	=11	=11	=11
2D	2A	2d	2d
2r	2r	2r	2r
=12	=12	=12	=12
2BB	2F#	2B	2d
2AA	2A	2c#X	2e
=13	=13	=13	=13
2D	2A	2d	2f#
4GG	4B	4B	4d
4GG	4B	4d	4g
=14	=14	=14	=14
4C	4c	4e	4g
4D	4A	4d	4f#
2GG	2B	2d	2g
=15	=15	=15	=15
2r	2r	2r	2r
2G	2B	2g	2dd
=16	=16	=16	=16
4E	4B	4g	4g
4D	4d	4f#	4a
4G	4d	4g	4b
4C	4c	4e	4g
=17	=17	=17	=17
4AA	4e	4a	4cc
4C	4e	4g	4cc
2GG	2d	2g	2b
=18	=18	=18	=18
2r	2r	2r	2r
2G	2B	2g	2dd
=19	=19	=19	=19
4A	4A	4e	4cc
4E	4G	4e	4b
4Fn	4c	4c	4a
4G	4B	4g	4dd
=20	=20	=20	=20
4C	4A	4e	4cc
4GG	2G	4d	4b
2D	.	2d	2a
.	4F#	.	.
=21	=21	=21	=21
2GG	2G	2d	2b
2r	2r	2r	2r
=22	=22	=22	=22
2G	2d	2g	2b
4C	4e	4g	4cc
4G	4d	4g	4b
=23	=23	=23	=23
4C	4c	4e	4g
4GG	4d	4g	4b
4D	4d	4f#	4a
4E	4G	4B	4g
=24	=24	=24	=24
2D	2A	2d	2f#
2GG	2B	2d	2g
=25	=25	=25	=25
2r	2r	2r	2r
2GG	2B	2g	2dd
=26	=26	=26	=26
4C	4e	4g	4cc
4GG	4d	4g	4b
4D	4d	4f#	4a
4E	4B	4e	4g
=27	=27	=27	=27
2BB	2d	4f#	2b
.	.	4.g	.
2D	2d	.	2a
.	.	16f#/LL	.
.	.	16e/JJ	.
.	.	4f#	.
=28	=28	=28	=28
1GG	1d	1g	1g
==	==	==	==
*-	*-	*-	*-
!!!software: music21 v.9.7.1
!!!software: music21 v.8.3.0
!!!RDF**kern: > = above
!!!RDF**kern: < = below
